gama.ui.shared/icons_svg/light/generic/action.selectall.svg

<svg height="25" viewBox="-924.67 -3654.814 25 25" width="25" xmlns="http://www.w3.org/2000/svg"><g fill="none"><path d="m-920.3305-3654.3143h16.32c2.1208 0 3.84 1.7193 3.84 3.84v16.32c0 2.1208-1.7192 3.84-3.84 3.84h-16.32c-2.1208 0-3.84-1.7192-3.84-3.84v-16.32c0-2.1207 1.7192-3.84 3.84-3.84z" fill="#fff"/><path d="m-920.3305-3654.3143h16.32c2.1208 0 3.84 1.7193 3.84 3.84v16.32c0 2.1208-1.7192 3.84-3.84 3.84h-16.32c-2.1208 0-3.84-1.7192-3.84-3.84v-16.32c0-2.1207 1.7192-3.84 3.84-3.84z" stroke="#000" stroke-linecap="round" stroke-linejoin="round" stroke-width=".25"/><path d="m-906.8372-3649.4254c0-.4889.4-.8889.8889-.8889h.8889c.4889 0 .8889.4.8889.8889v.8889c0 .4889-.4.8889-.8889.8889v10.6666c.4889 0 .8889.4.8889.889v.889c0 .4887-.4.8887-.8889.8887h-.8889c-.4889 0-.8889-.4-.8889-.8887h-10.6666c0 .4887-.4.8887-.8889.8887h-.8889c-.4889 0-.8889-.4-.8889-.8887v-.889c0-.489.4-.889.8889-.889v-10.6666c-.4889 0-.8889-.4-.8889-.8889v-.8889c0-.4889.4-.8889.8889-.8889h.8889c.4889 0 .8889.4.8889.8889zm0 .8889h-10.6666c0 .4889-.4.8889-.8889.8889v10.6666c.4889 0 .8889.4.8889.889h10.6666c0-.489.4-.889.8889-.889v-10.6666c-.4889 0-.8889-.4-.8889-.8889zm-7.1111 2.6665v3.1113c0 .2487-.1955.4444-.4444.4444s-.4445-.1957-.4445-.4444v-3.1113h-1.3333c-.2489 0-.4444-.1954-.4444-.4443 0-.2487.1955-.4444.4444-.4444h3.5556c.2489 0 .4444.1957.4444.4444 0 .2489-.1955.4443-.4444.4443zm-5.3333-3.5554v.8889h.8889v-.8889zm13.3333 0v.8889h.8889v-.8889zm0 13.3334v.889h.8889v-.889zm-13.3333 0v.889h.8889v-.889zm8.4444-9.778c-.2488 0-.4444-.1954-.4444-.4443 0-.2487.1956-.4444.4444-.4444h2.6667c.2489 0 .4445.1957.4445.4444 0 .2489-.1956.4443-.4445.4443zm0 2.667c-.2488 0-.4444-.1957-.4444-.4446s.1956-.4444.4444-.4444h2.6667c.2489 0 .4445.1955.4445.4444s-.1956.4446-.4445.4446zm-5.3333 2.6665c-.2489 0-.4444-.1955-.4444-.4445s.1955-.4444.4444-.4444h8c.2489 0 .4445.1954.4445.4444s-.1956.4445-.4445.4445zm0 2.6665c-.2489 0-.4444-.1954-.4444-.4443 0-.2487.1955-.4444.4444-.4444h8c.2489 0 .4445.1957.4445.4444 0 .2489-.1956.4443-.4445.4443z" fill="#5c76a1"/></g></svg>

<?xml version="1.0" encoding="UTF-8" standalone="no"?>
<!DOCTYPE svg PUBLIC "-//W3C//DTD SVG 1.1//EN" "http://www.w3.org/Graphics/SVG/1.1/DTD/svg11.dtd">
<svg version="1.1" xmlns="http://www.w3.org/2000/svg" xmlns:xl="http://www.w3.org/1999/xlink" xmlns:dc="http://purl.org/dc/elements/1.1/" viewBox="-924.6705 -3654.8143 25 25" width="25" height="25">
  <defs/>
  <g id="SOURCES" stroke-dasharray="none" fill="none" stroke="none" fill-opacity="1" stroke-opacity="1">
    <title>SOURCES</title>
    <g id="SOURCES_Calque_2">
      <title>Calque 2</title>
      <g id="Graphic_9238">
        <path d="M -920.3305 -3654.3143 L -904.0105 -3654.3143 C -901.8897 -3654.3143 -900.1705 -3652.595 -900.1705 -3650.4743 L -900.1705 -3634.1543 C -900.1705 -3632.0335 -901.8897 -3630.3143 -904.0105 -3630.3143 L -920.3305 -3630.3143 C -922.4513 -3630.3143 -924.1705 -3632.0335 -924.1705 -3634.1543 L -924.1705 -3650.4743 C -924.1705 -3652.595 -922.4513 -3654.3143 -920.3305 -3654.3143 Z" fill="white"/>
        <path d="M -920.3305 -3654.3143 L -904.0105 -3654.3143 C -901.8897 -3654.3143 -900.1705 -3652.595 -900.1705 -3650.4743 L -900.1705 -3634.1543 C -900.1705 -3632.0335 -901.8897 -3630.3143 -904.0105 -3630.3143 L -920.3305 -3630.3143 C -922.4513 -3630.3143 -924.1705 -3632.0335 -924.1705 -3634.1543 L -924.1705 -3650.4743 C -924.1705 -3652.595 -922.4513 -3654.3143 -920.3305 -3654.3143 Z" stroke="black" stroke-linecap="round" stroke-linejoin="round" stroke-width=".25"/>
      </g>
      <g id="Group_9256">
        <title>text-field</title>
        <g id="Graphic_9257">
          <path d="M -906.8372 -3649.4254 C -906.8372 -3649.9143 -906.4372 -3650.3143 -905.9483 -3650.3143 L -905.0594 -3650.3143 C -904.5705 -3650.3143 -904.1705 -3649.9143 -904.1705 -3649.4254 L -904.1705 -3648.5365 C -904.1705 -3648.0476 -904.5705 -3647.6476 -905.0594 -3647.6476 L -905.0594 -3636.981 C -904.5705 -3636.981 -904.1705 -3636.581 -904.1705 -3636.092 L -904.1705 -3635.203 C -904.1705 -3634.7143 -904.5705 -3634.3143 -905.0594 -3634.3143 L -905.9483 -3634.3143 C -906.4372 -3634.3143 -906.8372 -3634.7143 -906.8372 -3635.203 L -917.5038 -3635.203 C -917.5038 -3634.7143 -917.9038 -3634.3143 -918.3927 -3634.3143 L -919.2816 -3634.3143 C -919.7705 -3634.3143 -920.1705 -3634.7143 -920.1705 -3635.203 L -920.1705 -3636.092 C -920.1705 -3636.581 -919.7705 -3636.981 -919.2816 -3636.981 L -919.2816 -3647.6476 C -919.7705 -3647.6476 -920.1705 -3648.0476 -920.1705 -3648.5365 L -920.1705 -3649.4254 C -920.1705 -3649.9143 -919.7705 -3650.3143 -919.2816 -3650.3143 L -918.3927 -3650.3143 C -917.9038 -3650.3143 -917.5038 -3649.9143 -917.5038 -3649.4254 Z M -906.8372 -3648.5365 L -917.5038 -3648.5365 C -917.5038 -3648.0476 -917.9038 -3647.6476 -918.3927 -3647.6476 L -918.3927 -3636.981 C -917.9038 -3636.981 -917.5038 -3636.581 -917.5038 -3636.092 L -906.8372 -3636.092 C -906.8372 -3636.581 -906.4372 -3636.981 -905.9483 -3636.981 L -905.9483 -3647.6476 C -906.4372 -3647.6476 -906.8372 -3648.0476 -906.8372 -3648.5365 Z M -913.9483 -3645.87 L -913.9483 -3642.7587 C -913.9483 -3642.51 -914.1438 -3642.3143 -914.3927 -3642.3143 C -914.6416 -3642.3143 -914.8372 -3642.51 -914.8372 -3642.7587 L -914.8372 -3645.87 L -916.1705 -3645.87 C -916.4194 -3645.87 -916.6149 -3646.0654 -916.6149 -3646.3143 C -916.6149 -3646.563 -916.4194 -3646.7587 -916.1705 -3646.7587 L -912.6149 -3646.7587 C -912.366 -3646.7587 -912.1705 -3646.563 -912.1705 -3646.3143 C -912.1705 -3646.0654 -912.366 -3645.87 -912.6149 -3645.87 Z M -919.2816 -3649.4254 L -919.2816 -3648.5365 L -918.3927 -3648.5365 L -918.3927 -3649.4254 Z M -905.9483 -3649.4254 L -905.9483 -3648.5365 L -905.0594 -3648.5365 L -905.0594 -3649.4254 Z M -905.9483 -3636.092 L -905.9483 -3635.203 L -905.0594 -3635.203 L -905.0594 -3636.092 Z M -919.2816 -3636.092 L -919.2816 -3635.203 L -918.3927 -3635.203 L -918.3927 -3636.092 Z M -910.8372 -3645.87 C -911.086 -3645.87 -911.2816 -3646.0654 -911.2816 -3646.3143 C -911.2816 -3646.563 -911.086 -3646.7587 -910.8372 -3646.7587 L -908.1705 -3646.7587 C -907.9216 -3646.7587 -907.726 -3646.563 -907.726 -3646.3143 C -907.726 -3646.0654 -907.9216 -3645.87 -908.1705 -3645.87 Z M -910.8372 -3643.203 C -911.086 -3643.203 -911.2816 -3643.3987 -911.2816 -3643.6476 C -911.2816 -3643.8965 -911.086 -3644.092 -910.8372 -3644.092 L -908.1705 -3644.092 C -907.9216 -3644.092 -907.726 -3643.8965 -907.726 -3643.6476 C -907.726 -3643.3987 -907.9216 -3643.203 -908.1705 -3643.203 Z M -916.1705 -3640.5365 C -916.4194 -3640.5365 -916.6149 -3640.732 -916.6149 -3640.981 C -916.6149 -3641.23 -916.4194 -3641.4254 -916.1705 -3641.4254 L -908.1705 -3641.4254 C -907.9216 -3641.4254 -907.726 -3641.23 -907.726 -3640.981 C -907.726 -3640.732 -907.9216 -3640.5365 -908.1705 -3640.5365 Z M -916.1705 -3637.87 C -916.4194 -3637.87 -916.6149 -3638.0654 -916.6149 -3638.3143 C -916.6149 -3638.563 -916.4194 -3638.7587 -916.1705 -3638.7587 L -908.1705 -3638.7587 C -907.9216 -3638.7587 -907.726 -3638.563 -907.726 -3638.3143 C -907.726 -3638.0654 -907.9216 -3637.87 -908.1705 -3637.87 Z" fill="#5c76a1"/>
        </g>
      </g>
    </g>
  </g>
</svg>
